X:1
T:Trois Valses
T:Molto vivace in D♭ major (“Minute Waltz”)
T:Trois Valses – Op. 64
T:No. 1 – “Minute Waltz”
T:Frédéric Chopin
T:OpenScore (CC0)
T:OpenScore (CC0)
T:OpenScore (CC0)
T:OpenScore (CC0)
C:Frédéric Chopin
Z:OpenScore (CC0)
%%score { ( 1 3 ) | ( 2 4 ) }
L:1/8
Q:1/4=260
M:3/4
K:Db
V:1 treble nm="Piano" snm="Pno."
V:3 treble 
V:2 bass 
V:4 bass 
V:1
"^Molto vivace.""_leggiero" (!>!A2 =GAcB | =GABAcB | =GAcBGA | cB=GAcB | =GAcB!<(!GA | cB=GAcB | %6
 =GAcBGA | Bcdef_g!<)! |!f!!>(! b3 agf | fePe=d e2)!>)! |!mf!!>(! (b3 agf | fPe=defB!>)! | %12
!mp! =GAcBGA | cB=GAcB |!<(! =GAcBGA | Bcdef_g!<)! |!f!!>(! b3 agf | fePe=d e2)!>)! |!mf! (b3 agf | %19
!<(! efPe=de=e)!<)! |!f! (3(fgf =ef_ag | fgf=efb | (3aba =gac'b | aba=gad' |!>(! c'ba_gfe | %25
 dcBAGF | EDC!>)!!mp!!<(!EBA | =GABcde!<)! |!f! (3fgf =ef_ag | fgf=efb | (3aba =gac'b | %31
 ab!>(!a=gaf' | e'd'c'ba_g | fedcBA | =AcB!>)!F!mf!GC | D2) z2 (f2 | (3fgf =ef_ag | fgf=efb | %38
 (3aba =gac'b | aba=gad' |!>(! c'ba_gfe | dcBAGF | EDC!>)!!p!!<(!EBA | =GABcde!<)! | %44
!mp! (3fgf =ef_ag | fgf=efb | (3aba =gac'b | ab!>(!a=gaf' | e'd'c'ba_g | fedcBA | =AcB!>)!FGC | %51
!pp! D2) z2 ||"_sostenuto" (A2- | A4 E2 | A4 =E2 |!<(! A4 F2 | f4) (f2-!<)! |!p! f4 B2 | f4 c2 | %59
 e4 d2 | (4:3:4c2 e2 d2 B2 | A4)!<(! (E2 | A4) (=E2 | A4 F2 | f6!<)! |!mp! Tc2 =B2 c2 | %66
 a2 _B2 =g2 |!>(! =A2 _g2 _A2 | f2 F2 B2!>)! |!pp! (A4) E2 |{/a} A4 =E2 |{/a} A4 F2 |{/a} f4 f2 | %73
{/a} f4 B2 |{/a} f4 c2 |{/a} e2 d2 c2) |{/a} (e2 d3 c) |{/a} (A4 E2 |{/a} A4 =E2 |!<(!{/a} A4 F2 | %80
 f6!<)! |!p! f4 B2 | e4 __B2 | e2!<(! A2 =d2 | f2 e2 a2)!<)! |!mp! (!trill(!TA6- | !trill(!TA6- | %87
!<(! !trill(!TA6- | !trill(!TA6 | =GAcBGA | cB=GAcB | =GAcBGA!<)! | cB=GAcB |!f! =GAcBGA | %94
 cB=GAcB | =GAcBGA | Bcdef_g |!>(! b3 agf | fePe=d e2)!>)! |!mp!!>(! (b3 agf | fPe=defB!>)! | %101
!p! =GAcBGA | cB=GAcB |!<(! =GAcBGA | Bcdef_g!<)! |!mf!!>(! b3 agf | fePe=d e2)!>)! | (b3 agf | %108
!p!!<(! efTe=de=e)!<)! | (3(fgf!mp!!<(! =ef_ag | fgf=efb | (3aba =gac'b | aba=gad'!<)! | %113
!f!!>(! c'ba_gfe | dcBAGF | EDC!>)!!mp!!<(!EBA | =GABcde!<)! |!mf! (3fgf =ef_ag | fgf=efb | %119
 (3aba =gac'b | ab!>(!a=gaf' | e'd'c'ba_g | fedcBA | =AcBFG!>)!C | D2) z2 (!>!f2- | %125
!pp! (3fgf =e!<(!f_ag | fgf=efb | (3aba =gac'b | aba=gad'!<)! |!mf!!>(! c'ba_gfe | dcBAGF | %131
 EDC!>)!!mp!!<(!EBA | =GABcde!<)! |!f! (3fgf =ef_ag | fgf=efb | (3aba =gac'b) | %136
 aba=ga!8va(!!>(! (f'' | (8:6:8e''d''c''b'a'_g'f'e'!8va)! |(8:6:8d'c'bagfe!>)!d | %139
!mp!(8:6:8c!<(!B=AcBFGC!<)! |!f! D4) z2 |] %141
V:2
 z6 | z6 | z6 | z6 |!ped! D,2 [A,DF]2 [A,DF]2!ped-up! |!ped! F,2 [A,DF]2 [A,DF]2!ped-up! | %6
!ped! D,2 [A,DF]2 [A,DF]2!ped-up! |!ped! F,2 [A,DF]2 [A,DF]2!ped-up! | %8
!ped! A,,2 [A,C]2 [A,C]2!ped-up! |!ped! E,2 [A,C]2 [A,C]2!ped-up! | %10
!ped! A,,2[I:staff -1] [CG]2 [CG]2 |[I:staff +1] A,2[I:staff -1] [CG]2 [CG]2!ped-up! | %12
!ped![I:staff +1] D,2 [A,DF]2 [A,DF]2!ped-up! |!ped! F,2 [A,DF]2 [A,DF]2!ped-up! | %14
!ped! D,2 [A,DF]2 [A,DF]2!ped-up! |!ped! F,2 [A,DF]2 [A,DF]2!ped-up! | %16
!ped! A,,2 [A,C]2 [A,C]2!ped-up! |!ped! E,2 [A,C]2 [A,C]2!ped-up! | %18
!ped! A,,2 [A,C]2 [A,C]2!ped-up! |!ped! A,2 [CG]2 A,,2!ped-up! | %20
!ped! =A,,2 [F,CE]2 [F,CE]2!ped-up! |!ped! B,,2 [F,D]2 [F,D]2!ped-up! | %22
!ped! C,2 [A,E_G]2 [A,EG]2!ped-up! |!ped! D,2 [A,F]2 z2!ped-up! | G,2 [B,E]2 z2 | %25
!ped! A,,2 [F,A,D]2 z2!ped-up! |!ped! A,,2 [G,A,]2 [G,A,C]2!ped-up! |!ped! D,2 [A,DF]2 z2!ped-up! | %28
 (A,6 | B,6 | C6 | D2)[I:staff -1] [FA]2[I:staff +1] z2 | %32
!ped! G,2[I:staff -1] [DEB]2[I:staff +1] z2!ped-up! |!ped! A,,2 [F,A,D]2 z2!ped-up! | %34
 _A,,2 [G,A,]2 [G,A,]2 |!ped! D,2 [A,F]2 z2!ped-up! |!ped! =A,,2 [F,CE]2 [F,CE]2!ped-up! | %37
!ped! B,,2 [F,D]2 [F,D]2!ped-up! |!ped! C,2 [A,E_G]2 [A,EG]2!ped-up! |!ped! D,2 [A,F]2 z2!ped-up! | %40
 G,2 [B,E]2 z2 |!ped! A,,2 [F,A,D]2 z2!ped-up! |!ped! A,,2 [G,A,]2 [G,A,C]2!ped-up! | %43
!ped! D,2 [A,DF]2 z2!ped-up! | (=A,6 | B,6 | C6 | D2)[I:staff -1] [FA]2[I:staff +1] z2 | %48
!ped! G,2[I:staff -1] [DEB]2[I:staff +1] z2!ped-up! |!ped! A,,2 [F,A,D]2 z2!ped-up! | %50
 _A,,2 [G,A,]2 [G,A,]2 | (D,2 [A,F]2) || z2 |!ped! A,,2 [G,A,C]2 [G,A,C]2 | %54
 [G,A,C]2 [G,A,C]2 [G,A,C]2!ped-up! |!ped! D,2 [A,D]2 [A,D]2!ped-up! | %56
!ped! A,,2 [A,DF]2 [A,DF]2!ped-up! |!ped! E,2 [A,CG]2 [A,CG]2!ped-up! | %58
!ped! A,,2 [A,EG]2 [A,EG]2!ped-up! |!ped! D,2 [A,DF]2 [A,DF]2!ped-up! | F,2 [A,DF]2 [A,DF]2 | %61
!ped! C,2 [G,A,]2 [G,A,]2!ped-up! |!ped! A,,2 [G,A,]2 [G,A,]2!ped-up! | %63
!ped! D,2 [A,D]2 [A,D]2!ped-up! |!ped! =B,,2 [A,CF]2 [A,CF]2!ped-up! | %65
!ped! C,2 [A,CF]2 [A,CF]2!ped-up! |!ped! C,2 [=G,C=E]2 z2!ped-up! |!ped! F,,2 z2 [F,C]2!ped-up! | %68
 z6 |!ped! C,2 [G,A,]2 [G,A,]2!ped-up! |!ped! A,,2 [G,A,C]2 [G,A,C]2!ped-up! | %71
!ped! D,2 [A,D]2 [A,D]2!ped-up! |!ped! A,,2 [A,DF]2 [A,DF]2!ped-up! | %73
!ped! E,2 [A,CG]2 [A,CG]2!ped-up! |!ped! A,,2 [A,EG]2 [A,EG]2!ped-up! | %75
!ped! D,2 [A,DF]2 [A,DF]2!ped-up! |!ped! F,2 [A,DF]2 [A,DF]2!ped-up! | %77
!ped! z2 [G,A,]2 [G,A,]2!ped-up! |!ped! A,,2 [G,A,C]2 [G,A,C]2!ped-up! | %79
!ped! _C,2 [F,A,E]2 [F,A,E]2!ped-up! |!ped! B,,2 [F,A,=D]2 [F,A,D]2!ped-up! | %81
!ped! E,2 [_D=G]2 [DG]2!ped-up! | z2 [D_G]2 [DG]2 | x2 [C_G]2 z2 | z6 | z6 | z6 | z6 | z6 | z6 | %90
 z6 | z6 | z6 |!ped! D,,2 [A,DF]2 [A,DF]2!ped-up! |!ped! F,2 [A,DF]2 [A,DF]2!ped-up! | %95
!ped! D,2 [A,DF]2 [A,DF]2!ped-up! |!ped! F,2 [A,DF]2 [A,DF]2!ped-up! | %97
!ped! A,,2 [A,C]2 [A,C]2!ped-up! |!ped! E,2 [A,C]2 [A,C]2!ped-up! | %99
!ped! A,,2[I:staff -1] [CG]2 [CG]2 |[I:staff +1] A,2[I:staff -1] [CG]2 [CG]2!ped-up! | %101
!ped![I:staff +1] D,2 [A,DF]2 [A,DF]2!ped-up! |!ped! F,2 [A,DF]2 [A,DF]2!ped-up! | %103
!ped! D,2 [A,DF]2 [A,DF]2!ped-up! |!ped! F,2 [A,DF]2 [A,DF]2!ped-up! | %105
!ped! A,,2 [A,C]2 [A,C]2!ped-up! |!ped! E,2 [A,C]2 [A,C]2!ped-up! | %107
!ped! A,,2 [A,C]2 [A,C]2!ped-up! |!ped! A,2 [CG]2 A,,2!ped-up! | %109
!ped! =A,,2 [F,CE]2 [F,CE]2!ped-up! |!ped! B,,2 [F,D]2 [F,D]2!ped-up! | %111
!ped! C,2 [A,E_G]2 [A,EG]2!ped-up! |!ped! D,2 [A,F]2 z2!ped-up! | G,2 [B,E]2 z2 | %114
!ped! A,,2 [F,A,D]2 z2!ped-up! |!ped! A,,2 [G,A,]2 [G,A,C]2!ped-up! |!ped! D,2 [A,DF]2 z2!ped-up! | %117
 (=A,6 | B,6 | C6 | D2)[I:staff -1] [FA]2[I:staff +1] z2 | %121
!ped! G,2[I:staff -1] [DEB]2[I:staff +1] z2!ped-up! |!ped! A,,2 [F,A,D]2 z2!ped-up! | %123
 _A,,2 [G,A,]2 [G,A,]2 |!ped! D,2 [A,F]2 z2!ped-up! |!ped! =A,,2 [F,CE]2 [F,CE]2!ped-up! | %126
!ped! B,,2 [F,D]2 [F,D]2!ped-up! |!ped! C,2 [A,E_G]2 [A,EG]2!ped-up! |!ped! D,2 [A,F]2 z2!ped-up! | %129
 G,2 [B,E]2 z2 |!ped! A,,2 [F,A,D]2 z2!ped-up! |!ped! A,,2 [G,A,]2 [G,A,C]2!ped-up! | %132
!ped! D,2 [A,DF]2 z2!ped-up! | (=A,6 | B,6 | C6) | %136
!ped! D2[I:staff -1] [FA]2[I:staff +1] z2!ped-up! |!ped! G,,2[K:treble] [DEB]2 z2!ped-up! | z6 | %139
[K:bass]!ped! A,,2 [G,A,]2 [G,A,]2!ped-up! |!ped! D,,2 [F,A,F]2 z2!ped-up! |] %141
V:3
 x6 | x6 | x6 | x6 | x6 | x6 | x6 | x6 | x2 G2 G2 | z2 G2 G2 | x6 | x6 | x6 | x6 | x6 | x6 | %16
 x2 G2 G2 | x2 G2 G2 | x2 G2 G2 | x6 | x6 | x6 | x6 | x6 | x6 | x6 | x6 | x6 | z2 [_EF]2 [EF]2 | %29
 z2 [DF]2 [DF]2 | z2 [_GA]2 [GA]2 | x6 | x6 | x6 | x6 | x6 | x6 | x6 | x6 | x6 | x6 | x6 | x6 | %43
 x6 | z2 [_EF]2 [EF]2 | z2 [DF]2 [DF]2 | z2 [_GA]2 [GA]2 | x6 | x6 | x6 | x6 | x4 || x2 | x6 | x6 | %55
 x6 | x6 | x6 | x6 | x6 | x6 | x6 | x6 | x6 | x2 x4 | x6 | x6 | x6 | x6 | x6 | x6 | x6 | x6 | x6 | %74
 x6 | x6 | x6 | x6 | x6 | x6 | x2 x4 | x6 | x6 | x6 | x6 | x6 | x6 | x6 | x6 | x6 | x6 | x6 | x6 | %93
 x6 | x6 | x6 | x6 | x2 G2 G2 | z2 G2 G2 | x6 | x6 | x6 | x6 | x6 | x6 | x2 G2 G2 | x2 G2 G2 | %107
 x2 G2 G2 | x6 | x6 | x6 | x6 | x6 | x6 | x6 | x6 | x6 | z2 [_EF]2 [EF]2 | z2 [DF]2 [DF]2 | %119
 z2 [_GA]2 [GA]2 | x6 | x6 | x6 | x6 | x6 | x6 | x6 | x6 | x6 | x6 | x6 | x6 | x6 | %133
 z2 [_EF]2 [EF]2 | z2 [DF]2 [DF]2 | z2 [_GA]2 [GA]2 | x5!8va(! x | x6!8va)! | x6 | x6 | x6 |] %141
V:4
 x6 | x6 | x6 | x6 | x6 | x6 | x6 | x6 | x6 | x6 | x6 | x6 | x6 | x6 | x6 | x6 | x6 | x6 | x6 | %19
 x6 | x6 | x6 | x6 | x6 | x6 | x6 | x6 | x6 | x6 | x6 | x6 | x6 | x6 | x6 | x6 | x6 | x6 | x6 | %38
 x6 | x6 | x6 | x6 | x6 | x6 | x6 | x6 | x6 | x6 | x6 | x6 | x6 | x4 || x2 | x6 | x6 | x6 | x6 | %57
 x6 | x6 | x6 | x6 | x6 | x6 | x6 | x6 | x6 | x6 | x6 | x6 | x6 | x6 | x6 | x6 | x6 | x6 | x6 | %76
 x6 | C,6 | x6 | x6 | x6 | x6 | x6 | A,4 x2 | x6 | x6 | x6 | x6 | x6 | x6 | x6 | x6 | x6 | x6 | %94
 x6 | x6 | x6 | x6 | x6 | x6 | x6 | x6 | x6 | x6 | x6 | x6 | x6 | x6 | x6 | x6 | x6 | x6 | x6 | %113
 x6 | x6 | x6 | x6 | x6 | x6 | x6 | x6 | x6 | x6 | x6 | x6 | x6 | x6 | x6 | x6 | x6 | x6 | x6 | %132
 x6 | x6 | x6 | x6 | x6 | x2[K:treble] x4 | x6 |[K:bass] x6 | x6 |] %141

